svg/temple_hindu.svg

<svg xmlns="http://www.w3.org/2000/svg" viewBox="0 0 24 24"><path d="M6.6 11h10.8l-.9-3h-9zM20 11v2H4v-2H2v11h8v-5h4v5h8V11zm-4.1-5L15 3V1h-2v2h-2V1H9v2.1L8.1 6z"/></svg>

<svg xmlns="http://www.w3.org/2000/svg" id="mdi-temple-hindu" viewBox="0 0 24 24"><path d="M6.6 11H17.4L16.5 8H7.5L6.6 11M20 11V13H4V11H2V22H10V17H14V22H22V11H20M15.9 6L15 3V1H13V3H11V1H9V3.1L8.1 6H15.9Z" /></svg>
